src/assets/svg/additional/2-email.svg

<svg width="40" height="40" viewBox="0 0 40 40" fill="none" xmlns="http://www.w3.org/2000/svg">
<path d="M5.83337 33.3333C5.16671 33.3333 4.58337 33.0833 4.08337 32.5833C3.58337 32.0833 3.33337 31.5 3.33337 30.8333V9.16667C3.33337 8.50001 3.58337 7.91667 4.08337 7.41667C4.58337 6.91667 5.16671 6.66667 5.83337 6.66667H34.1667C34.8334 6.66667 35.4167 6.91667 35.9167 7.41667C36.4167 7.91667 36.6667 8.50001 36.6667 9.16667V30.8333C36.6667 31.5 36.4167 32.0833 35.9167 32.5833C35.4167 33.0833 34.8334 33.3333 34.1667 33.3333H5.83337ZM20 20.75L5.83337 11.4583V30.8333H34.1667V11.4583L20 20.75ZM20 18.25L34 9.16667H6.04171L20 18.25ZM5.83337 11.4583V9.16667V30.8333V11.4583Z" fill="#E9E8E8"/>
</svg>

<svg xmlns="http://www.w3.org/2000/svg" width="40" height="40" fill="none"><path fill="#E9E8E8" d="M5.833 33.333c-.666 0-1.25-.25-1.75-.75s-.75-1.083-.75-1.75V9.167c0-.667.25-1.25.75-1.75s1.084-.75 1.75-.75h28.334c.666 0 1.25.25 1.75.75s.75 1.083.75 1.75v21.666c0 .667-.25 1.25-.75 1.75s-1.084.75-1.75.75H5.833ZM20 20.75 5.833 11.458v19.375h28.334V11.458L20 20.75Zm0-2.5 14-9.083H6.042L20 18.25ZM5.833 11.458V9.167v21.666-19.375Z"/></svg>
